X:1
T:Invention #4 in D minor LowerVoice /\ octave
T:J.S. Bach (BWV 775)
T:Transcribed by Mike Magatagan 2012 1 of 2 Mandolin Parts by Mike Haller 2015
T:Invention # 4  by J.S. Bach (BWV 775) for Piano Mike Magatagan (magataganm@cox.net or MMagatagan on http:\\www.MuseScore.com
T:Invention # 4  by J.S. Bach (BWV 775) for Piano Mike Magatagan (magataganm@cox.net or MMagatagan on http:\\www.MuseScore.com
T:Invention # 4  by J.S. Bach (BWV 775) for Piano Mike Magatagan (magataganm@cox.net or MMagatagan on http:\\www.MuseScore.com
Z:Invention # 4  by J.S. Bach (BWV 775) for Piano
Z:Mike Magatagan (magataganm@cox.net or MMagatagan on http:\\www.MuseScore.com
%%score 1 2
L:1/8
Q:1/4=96
M:3/8
K:F
V:1 treble nm="Mandolin" snm="Mdn."
V:2 tab stafflines=4 strings=G3,D4,A4,E5 nostems nm="Mandolin" snm="Mdn."
V:1
"^Allegro (ca. 96)" z3 | z3 | D/E/F/G/A/B/ | _D/B/A/G/F/E/ | FAd | EG_d | DdF | GAB | CcE | FGA | %10
 B/G/A/B/c/d/ | E/d/c/B/A/G/ | A/F/G/A/B/c/ | D/c/B/A/G/F/ | E/C/D/E/F/G/ | A,/G/F/E/D/C/ | %16
 D/B,/CC | A,/G,/A,/B,/C/D/ | E/D/C/B,/A,/G,/ | A,/B,/C/D/E/F/ | G,/F/E/D/C/B,/ | %21
 A,/B,/C/A,/B,/C/ | _G z z | G,/A,/B,/G,/A,/B,/ | E z z | FFD | =B,_A,E | A,/_A,/=A,/=B,/C/D/ | %28
 PE3- | E3- | E3- | E3- | E3- | Eed | c=BA | def | deE | A/A,/B,/C/D/_E/ | _G/_E/D/C/B,/A,/ | %39
 G,>G,A,/B,/ | CG,C | F/G/A/=B/_d/=d/ | E/d/_d/=B/A/G/ | FAd | EG_d | D/E/F/G/A/B/ | %46
 _D/B/A/G/F/E/ | F/G/AA, | B,>CB,/A,/ | G,/B/A/G/F/E/ | F/G/AA, | D3 |] %52
V:2
 x3 | x3 | !3!D/ !3!E/ !3!F/ !3!G/ !2!A/ !2!B/ | !4!_D/ !2!B/ !2!A/ !3!G/ !3!F/ !3!E/ | %4
 !3!F !2!A !2!d | !3!E !3!G !2!_d | !3!D !2!d !3!F | !3!G !2!A !2!B | !4!C !2!c !3!E | %9
 !3!F !3!G !2!A | !2!B/ !3!G/ !2!A/ !2!B/ !2!c/ !2!d/ | !3!E/ !2!d/ !2!c/ !2!B/ !2!A/ !3!G/ | %12
 !2!A/ !3!F/ !3!G/ !2!A/ !2!B/ !2!c/ | !3!D/ !2!c/ !2!B/ !2!A/ !3!G/ !3!F/ | %14
 !3!E/ !4!C/ !3!D/ !3!E/ !3!F/ !3!G/ | !4!A,/ !3!G/ !3!F/ !3!E/ !3!D/ !4!C/ | %16
 !3!D/ !4!B,/ !4!C !4!C | !4!A,/ !4!G,/ !4!A,/ !4!B,/ !4!C/ !3!D/ | %18
 !3!E/ !3!D/ !4!C/ !4!B,/ !4!A,/ !4!G,/ | !4!A,/ !4!B,/ !4!C/ !3!D/ !3!E/ !3!F/ | %20
 !4!G,/ !3!F/ !3!E/ !3!D/ !4!C/ !4!B,/ | !4!A,/ !4!B,/ !4!C/ !4!A,/ !4!B,/ !4!C/ | !3!^F x x | %23
 !4!G,/ !4!A,/ !4!B,/ !4!G,/ !4!A,/ !4!B,/ | !3!E x x | !3!F !3!F !3!D | !4!=B, !4!_A, !3!E | %27
 !4!A,/ !4!_A,/ !4!=A,/ !4!=B,/ !4!C/ !3!D/ | P!3!E3- | !3!E3- | !3!E3- | !3!E3- | !3!E3- | %33
 !3!E !1!e !2!d | !2!c !2!=B !2!A | !2!d !1!e !1!f | !2!d !1!e !3!E | %37
 !2!A/ !4!A,/ !4!B,/ !4!C/ !3!D/ !3!_E/ | !3!^F/ !3!_E/ !3!D/ !4!C/ !4!B,/ !4!A,/ | %39
 !4!G,3/2 !4!G,/ !4!A,/ !4!B,/ | !4!C !4!G, !4!C | !3!F/ !3!G/ !2!A/ !2!=B/ !2!_d/ !2!=d/ | %42
 !3!E/ !2!d/ !2!_d/ !2!=B/ !2!A/ !3!G/ | !3!F !2!A !2!d | !3!E !3!G !2!_d | %45
 !3!D/ !3!E/ !3!F/ !3!G/ !2!A/ !2!B/ | !4!_D/ !2!B/ !2!A/ !3!G/ !3!F/ !3!E/ | %47
 !3!F/ !3!G/ !2!A !4!A, | !4!B,3/2 !4!C/ !4!B,/ !4!A,/ | !4!G,/ !2!B/ !2!A/ !3!G/ !3!F/ !3!E/ | %50
 !3!F/ !3!G/ !2!A !4!A, | !3!D/ x/ x x |] %52

